<?xml version="1.0" encoding="UTF-8"?>
<map version="1.10" tiledversion="1.11.2" orientation="orthogonal" renderorder="right-down" width="74" height="61" tilewidth="24" tileheight="24" infinite="0" nextlayerid="4" nextobjectid="6">
 <tileset firstgid="1" source="tuil.tsx"/>
 <layer id="1" name="Calque de Tuiles 1" width="74" height="61" offsetx="0.00319602" offsety="0.00213068">
  <data encoding="csv">
0,0,0,0,0,0,0,0,0,27,9,9,9,9,9,9,9,9,14,0,0,0,0,0,0,0,0,0,0,0,0,0,0,0,0,0,0,0,0,0,0,0,0,0,0,0,0,0,0,0,0,0,0,0,0,27,9,9,9,9,9,9,9,9,14,0,0,0,0,0,0,0,0,0,
0,0,0,0,0,0,0,27,29,5,2,2,2,2,2,2,2,2,2684354565,16,14,0,0,0,0,0,0,0,0,0,0,0,0,0,0,0,0,0,0,0,0,0,0,0,0,0,0,0,0,0,0,0,0,27,29,5,2,2,2,2,2,2,2,2,2684354565,16,14,0,0,0,0,0,0,0,
0,0,0,0,0,27,29,2,2,2,2,2,2,2,2,2,2,2,2,2,2684354565,16,14,0,0,0,0,0,0,0,0,0,0,0,0,0,0,0,0,0,0,0,0,0,0,0,0,0,0,0,0,27,29,5,2,2,2,2,2,2,2,2,2,2,2,2,2684354565,16,14,0,0,0,0,0,
0,0,0,0,25,5,2,2,2,2,2,2,2,2,2,2,2,2,2,2,2,2,2684354565,13,0,0,0,0,0,0,0,0,0,0,0,0,0,0,0,0,0,0,0,0,0,0,0,0,0,0,25,5,2,2,2,2,2,2,2,2,2,2,2,2,2,2,2,2,2684354565,13,0,0,0,0,
0,0,0,25,5,2,2,2,2,2,2,3221225477,35,10,10,22,1610612741,2,2,2,2,2,2,2684354565,13,0,0,0,0,0,0,0,0,0,0,0,0,0,0,0,0,0,0,0,0,0,0,0,0,25,5,2,2,2,2,2,2,3221225477,35,10,10,22,1610612741,2,2,2,2,2,2,2684354565,13,0,0,0,
0,0,26,5,2,2,2,2,2,3221225477,35,33,0,0,0,0,20,22,1610612741,2,2,2,2,2,2684354565,15,0,0,0,0,0,0,0,0,0,0,0,0,0,0,0,0,0,0,0,0,0,0,26,5,2,2,2,2,2,3221225477,35,33,0,0,0,0,20,22,1610612741,2,2,2,2,2,2684354565,15,0,0,
0,0,28,2,2,2,2,3221225477,35,33,0,0,0,0,0,0,0,0,20,22,1610612741,2,2,2,2,17,0,0,0,0,0,0,0,0,0,0,0,0,0,0,0,0,0,0,0,0,0,0,28,2,2,2,2,3221225477,35,33,0,0,0,0,0,0,0,0,20,22,1610612741,2,2,2,2,17,0,0,
0,26,5,2,2,2,3221225477,31,0,0,0,0,0,0,0,0,0,0,0,0,19,1610612741,2,2,2,2684354565,15,0,0,0,0,0,0,0,0,0,0,0,0,0,0,0,0,0,0,0,0,26,5,2,2,2,3221225477,31,0,0,0,0,0,0,0,0,0,0,0,0,19,1610612741,2,2,2,2684354565,15,0,
0,28,2,2,2,2,34,0,0,0,0,0,0,0,0,0,0,0,0,0,0,23,2,2,2,2,17,0,0,0,0,0,0,0,0,0,0,0,0,0,0,0,0,0,0,0,0,28,2,2,2,2,34,0,0,0,0,0,0,0,0,0,0,0,0,0,0,23,2,2,2,2,17,0,
26,5,2,2,2,3221225477,32,0,0,0,0,0,0,0,0,0,0,0,0,0,0,21,1610612741,2,2,2,2684354565,15,0,0,0,0,0,0,0,0,0,0,0,0,0,0,0,0,0,0,26,5,2,2,2,3221225477,32,0,0,0,0,0,0,0,0,0,0,0,0,0,0,21,1610612741,2,2,2,2684354565,15,
7,2,2,2,2,34,0,0,0,0,0,0,0,0,0,0,0,0,0,0,0,0,23,2,2,2,2,8,0,0,0,0,0,0,0,0,0,0,0,0,0,0,0,0,0,0,7,2,2,2,2,34,0,0,0,0,0,0,0,0,0,0,0,0,0,0,0,0,23,2,2,2,2,8,
7,2,2,2,3221225477,32,0,0,0,0,0,0,0,0,0,0,0,0,0,0,0,0,21,1610612741,2,2,2,8,0,0,0,0,0,0,0,0,0,0,0,0,0,0,0,0,0,0,7,2,2,2,3221225477,32,0,0,0,0,0,0,0,0,0,0,0,0,0,0,0,0,21,1610612741,2,2,2,8,
7,2,2,2,34,0,0,0,0,0,0,0,0,0,0,0,0,0,0,0,0,0,0,23,2,2,2,8,0,0,0,0,0,0,0,0,0,0,0,0,0,0,0,0,0,0,7,2,2,2,34,0,0,0,0,0,0,0,0,0,0,0,0,0,0,0,0,0,0,23,2,2,2,8,
7,2,2,2,8,0,0,0,0,0,0,0,0,0,0,0,0,0,0,0,0,0,0,7,2,2,2,8,0,0,0,0,0,0,0,0,0,0,0,0,0,0,0,0,0,0,7,2,2,2,8,0,0,0,0,0,0,0,0,0,0,0,0,0,0,0,0,0,0,7,2,2,2,8,
7,2,1610612740,2,8,0,0,0,0,0,0,0,0,0,0,0,0,0,0,0,0,0,0,7,2,1610612740,2,8,0,0,0,0,0,0,0,0,0,0,0,0,0,0,0,0,0,0,7,2,2,2,8,0,0,0,0,0,0,0,0,0,0,0,0,0,0,0,0,0,0,7,2,1610612740,2,8,
7,2,1610612739,2,8,0,0,0,0,0,0,0,0,0,0,0,0,0,0,0,0,0,0,7,2,1610612739,2,8,0,0,0,0,0,0,0,0,0,0,0,0,0,0,0,0,0,0,7,2,2,2,8,0,0,0,0,0,0,0,0,0,0,0,0,0,0,0,0,0,0,7,2,1610612739,2,8,
7,2,1610612739,2,8,0,0,0,0,0,0,0,0,0,0,0,0,0,0,0,0,0,0,7,2,1610612739,2,8,0,0,0,0,0,0,0,0,0,0,0,0,0,0,0,0,0,0,7,2,2,2,8,0,0,0,0,0,0,0,0,0,0,0,0,0,0,0,0,0,0,7,2,1610612739,2,8,
7,2,1610612739,2,8,0,0,0,0,0,0,0,0,0,0,0,0,0,0,0,0,0,0,7,2,1610612739,2,8,0,0,0,0,0,0,0,0,0,0,0,0,0,0,0,0,0,0,7,2,2,2,8,0,0,0,0,0,0,0,0,0,0,0,0,0,0,0,0,0,0,7,2,1610612739,2,8,
7,2,1610612739,2,8,0,0,0,0,0,0,0,0,0,0,0,0,0,0,0,0,0,0,7,2,1610612739,2,8,0,0,0,0,0,0,0,0,0,0,0,0,0,0,0,0,0,0,7,2,2,2,8,0,0,0,0,0,0,0,0,0,0,0,0,0,0,0,0,0,0,7,2,1610612739,2,8,
7,2,2684354563,2,8,0,0,0,0,0,0,0,0,0,0,0,0,0,0,0,0,0,0,7,2,2684354563,2,8,0,0,0,0,0,0,0,0,0,0,0,0,0,0,0,0,0,0,7,1,1,1,8,0,0,0,0,0,0,0,0,0,0,0,0,0,0,0,0,0,0,7,2,2684354563,2,8,
7,2,2684354563,2,8,0,0,0,0,0,0,0,0,0,0,0,0,0,0,0,0,0,0,7,2,2684354563,2,8,0,0,0,0,0,0,0,0,0,0,0,0,0,0,0,0,0,0,7,2,2,2,8,0,0,0,0,0,0,0,0,0,0,0,0,0,0,0,0,0,0,7,2,2684354563,2,8,
7,2,2684354563,2,8,0,0,0,0,0,0,0,0,0,0,0,0,0,0,0,0,0,0,7,2,2684354563,2,8,0,0,0,0,0,0,0,0,0,0,0,0,0,0,0,0,0,0,7,2,2,2,8,0,0,0,0,0,0,0,0,0,0,0,0,0,0,0,0,0,0,7,2,2684354563,2,8,
7,2,2684354563,2,8,0,0,0,0,0,0,0,0,0,0,0,0,0,0,0,0,0,0,7,2,2684354563,2,8,0,0,0,0,0,0,0,0,0,0,0,0,0,0,0,0,0,0,7,2,2,2,8,0,0,0,0,0,0,0,0,0,0,0,0,0,0,0,0,0,0,7,2,2684354563,2,8,
7,2,2684354564,2,8,0,0,0,0,0,0,0,0,0,0,0,0,0,0,0,0,0,0,7,2,2684354564,2,8,0,0,0,0,0,0,0,0,0,0,0,0,0,0,0,0,0,0,7,2,2,2,8,0,0,0,0,0,0,0,0,0,0,0,0,0,0,0,0,0,0,7,2,2684354564,2,8,
7,2,2,2,8,0,0,0,0,0,0,0,0,0,0,0,0,0,0,0,0,0,0,7,2,2,2,8,0,0,0,0,0,0,0,0,0,0,0,0,0,0,0,0,0,0,7,2,2,2,8,0,0,0,0,0,0,0,0,0,0,0,0,0,0,0,0,0,0,7,2,2,2,8,
7,2,2,2,8,0,0,0,0,0,0,0,0,0,0,0,0,0,0,0,0,0,0,7,2,2,2,17,0,0,0,0,0,0,0,0,0,0,0,0,0,0,0,0,0,0,28,2,2,2,8,0,0,0,0,0,0,0,0,0,0,0,0,0,0,0,0,0,0,7,2,2,2,8,
7,2,2,2,8,0,0,0,0,0,0,0,0,0,0,0,0,0,0,0,0,0,0,7,2,2,2,2684354565,15,0,0,0,0,0,0,0,0,0,0,0,0,0,0,0,0,26,5,2,2,2,8,0,0,0,0,0,0,0,0,0,0,0,0,0,0,0,0,0,0,7,2,2,2,8,
7,2,2,2,8,0,0,0,0,0,0,0,0,0,0,0,0,0,0,0,0,0,0,7,2,2,2,2,17,0,0,0,0,0,0,0,0,0,0,0,0,0,0,0,0,28,2,2,2,2,8,0,0,0,0,0,0,0,0,0,0,0,0,0,0,0,0,0,0,7,2,2,2,8,
7,2,2,2,17,0,0,0,0,0,0,0,0,0,0,0,0,0,0,0,0,0,0,21,1610612741,2,2,2,2684354565,15,0,0,0,0,0,0,0,0,0,0,0,0,0,0,26,5,2,2,2,3221225477,32,0,0,0,0,0,0,0,0,0,0,0,0,0,0,0,0,0,0,28,2,2,2,8,
21,1610612741,2,2,2684354565,15,0,0,0,0,0,0,0,0,0,0,0,0,0,0,0,0,0,0,23,2,2,2,2,17,0,0,0,0,0,0,0,0,0,0,0,0,0,0,28,2,2,2,2,34,0,0,0,0,0,0,0,0,0,0,0,0,0,0,0,0,0,0,26,5,2,2,3221225477,32,
0,23,2,2,2,8,0,0,0,0,0,0,0,0,0,0,0,0,0,0,0,0,0,0,21,1610612741,2,2,2,2684354565,13,0,0,0,0,0,0,0,0,0,0,0,0,25,5,2,2,2,3221225477,32,0,0,0,0,0,0,0,0,0,0,0,0,0,0,0,0,0,0,7,2,2,2,34,0,
0,7,2,2,2,8,0,0,0,0,0,0,0,0,0,0,0,0,0,0,0,0,0,0,0,23,2,2,2,2,2684354565,16,14,0,0,0,0,0,0,0,0,27,29,5,2,2,2,2,34,0,0,0,0,0,0,0,0,0,0,0,0,0,0,0,0,0,0,0,7,2,2,2,8,0,
0,7,2,2,2,17,0,0,0,0,0,0,0,0,0,0,0,0,0,0,0,0,0,0,0,21,1610612741,2,2,2,2,2,2684354565,16,14,0,0,0,0,27,29,5,2,2,2,2,2,3221225477,32,0,0,0,0,0,0,0,0,0,0,0,0,0,0,0,0,0,0,0,28,2,2,2,8,0,
0,7,2,2,2,2684354565,15,0,0,0,0,0,0,0,0,0,0,0,0,0,0,0,0,0,0,0,19,1610612741,2,2,2,2,2,2,2684354565,16,9,9,29,5,2,2,2,2,2,2,3221225477,31,0,0,0,0,0,0,0,0,0,0,0,0,0,0,0,0,0,0,0,26,5,2,2,2,8,0,
0,21,1610612741,2,2,2,8,0,0,0,0,0,0,0,0,0,0,0,0,0,0,0,0,0,0,0,0,19,1610612741,2,2,2,2,2,2,2,2,2,2,2,2,2,2,2,2,3221225477,31,0,0,0,0,0,0,0,0,0,0,0,0,0,0,0,0,0,0,0,0,7,2,2,2,3221225477,32,0,
0,0,23,2,2,2,17,0,0,0,0,0,0,0,0,0,0,0,0,0,0,0,0,0,0,0,0,0,20,22,1610612741,2,2,2,2,2,2,2,2,2,2,2,2,3221225477,35,33,0,0,0,0,0,0,0,0,0,0,0,0,0,0,0,0,0,0,0,0,0,28,2,2,2,34,0,0,
0,0,7,2,2,2,2684354565,15,0,0,0,0,0,0,0,0,0,0,0,0,0,0,0,0,0,0,0,0,0,0,20,22,1610612741,2,2,2,2,2,2,2,2,3221225477,35,33,0,0,0,0,0,0,0,0,0,0,0,0,0,0,0,0,0,0,0,0,0,0,26,5,2,2,2,8,0,0,
0,0,21,1610612741,2,2,2,17,0,0,0,0,0,0,0,0,0,0,0,0,0,0,0,0,0,0,0,0,0,0,0,0,20,10,10,10,10,10,10,10,10,33,0,0,0,0,0,0,0,0,0,0,0,0,0,0,0,0,0,0,0,0,0,0,0,0,28,2,2,2,3221225477,32,0,0,
0,0,0,23,2,2,2,2684354565,15,0,0,0,0,0,0,0,0,0,0,0,0,0,0,0,0,0,0,0,0,0,0,0,0,0,0,0,0,0,0,0,0,0,0,0,0,0,0,0,0,0,0,0,0,0,0,0,0,0,0,0,0,0,0,0,0,26,5,2,2,2,34,0,0,0,
0,0,0,21,1610612741,2,2,2,17,0,0,0,0,0,0,0,0,0,0,0,0,0,0,0,0,0,0,0,0,0,0,0,0,0,0,0,0,0,0,0,0,0,0,0,0,0,0,0,0,0,0,0,0,0,0,0,0,0,0,0,0,0,0,0,0,28,2,2,2,3221225477,32,0,0,0,
0,0,0,0,23,2,2,2,2684354565,13,0,0,0,0,0,0,0,0,0,0,0,0,0,0,0,0,0,0,0,0,0,0,0,0,0,0,0,0,0,0,0,0,0,0,0,0,0,0,0,0,0,0,0,0,0,0,0,0,0,0,0,0,0,0,25,5,2,2,2,34,0,0,0,0,
0,0,0,0,21,1610612741,2,2,2,2684354565,15,0,0,0,0,0,0,0,0,0,0,0,0,0,0,0,0,0,0,0,0,0,0,0,0,0,0,0,0,0,0,0,0,0,0,0,0,0,0,0,0,0,0,0,0,0,0,0,0,0,0,0,0,26,5,2,2,2,3221225477,32,0,0,0,0,
0,0,0,0,0,23,2,2,2,2,17,0,0,0,0,0,0,0,0,0,0,0,0,0,0,0,0,0,0,0,0,0,0,0,0,0,0,0,0,0,0,0,0,0,0,0,0,0,0,0,0,0,0,0,0,0,0,0,0,0,0,0,0,28,2,2,2,2,34,0,0,0,0,0,
0,0,0,0,0,21,1610612741,2,2,2,2684354565,13,0,0,0,0,0,0,0,0,0,0,0,0,0,0,0,0,0,0,0,0,0,0,0,0,0,0,0,0,0,0,0,0,0,0,0,0,0,0,0,0,0,0,0,0,0,0,0,0,0,0,25,5,2,2,2,3221225477,32,0,0,0,0,0,
0,0,0,0,0,0,19,1610612741,2,2,2,2684354565,13,0,0,0,0,0,0,0,0,0,0,0,0,0,0,0,0,0,0,0,0,0,0,0,0,0,0,0,0,0,0,0,0,0,0,0,0,0,0,0,0,0,0,0,0,0,0,0,0,25,5,2,2,2,3221225477,31,0,0,0,0,0,0,
0,0,0,0,0,0,0,23,2,2,2,2,2684354565,13,0,0,0,0,0,0,0,0,0,0,0,0,0,0,0,0,0,0,0,0,0,0,0,0,0,0,0,0,0,0,0,0,0,0,0,0,0,0,0,0,0,0,0,0,0,0,25,5,2,2,2,2,34,0,0,0,0,0,0,0,
0,0,0,0,0,0,0,21,1610612741,2,2,2,2,2684354565,13,0,0,0,0,0,0,0,0,0,0,0,0,0,0,0,0,0,0,0,0,0,0,0,0,0,0,0,0,0,0,0,0,0,0,0,0,0,0,0,0,0,0,0,0,25,5,2,2,2,2,3221225477,32,0,0,0,0,0,0,0,
0,0,0,0,0,0,0,0,19,1610612741,2,2,2,2,2684354565,13,0,0,0,0,0,0,0,0,0,0,0,0,0,0,0,0,0,0,0,0,0,0,0,0,0,0,0,0,0,0,0,0,0,0,0,0,0,0,0,0,0,0,25,5,2,2,2,2,3221225477,31,0,0,0,0,0,0,0,0,
0,0,0,0,0,0,0,0,0,19,1610612741,2,2,2,2,2684354565,13,0,0,0,0,0,0,0,0,0,0,0,0,0,0,0,0,0,0,0,0,0,0,0,0,0,0,0,0,0,0,0,0,0,0,0,0,0,0,0,0,25,5,2,2,2,2,3221225477,31,0,0,0,0,0,0,0,0,0,
0,0,0,0,0,0,0,0,0,0,19,1610612741,2,2,2,2,2684354565,13,0,0,0,0,0,0,0,0,0,0,0,0,0,0,0,0,0,0,0,0,0,0,0,0,0,0,0,0,0,0,0,0,0,0,0,0,0,0,25,5,2,2,2,2,3221225477,31,0,0,0,0,0,0,0,0,0,0,
0,0,0,0,0,0,0,0,0,0,0,19,1610612741,2,2,2,2,2684354565,16,14,0,0,0,0,0,0,0,0,0,0,0,0,0,0,0,0,0,0,0,0,0,0,0,0,0,0,0,0,0,0,0,0,0,0,27,29,5,2,2,2,2,3221225477,31,0,0,0,0,0,0,0,0,0,0,0,
0,0,0,0,0,0,0,0,0,0,0,0,19,1610612741,2,2,2,2,2,2684354565,13,0,0,0,0,0,0,0,0,0,0,0,0,0,0,0,0,0,0,0,0,0,0,0,0,0,0,0,0,0,0,0,0,25,5,2,2,2,2,2,3221225477,31,0,0,0,0,0,0,0,0,0,0,0,0,
0,0,0,0,0,0,0,0,0,0,0,0,0,19,1610612741,2,2,2,2,2,2684354565,16,14,0,0,0,0,0,0,0,0,0,0,0,0,0,0,0,0,0,0,0,0,0,0,0,0,0,0,0,0,27,29,5,2,2,2,2,2,3221225477,31,0,0,0,0,0,0,0,0,0,0,0,0,0,
0,0,0,0,0,0,0,0,0,0,0,0,0,0,20,22,1610612741,2,2,2,2,2,2684354565,16,14,0,0,0,0,0,0,0,0,0,0,0,0,0,0,0,0,0,0,0,0,0,0,0,0,27,29,5,2,2,2,2,2,3221225477,35,33,0,0,0,0,0,0,0,0,0,0,0,0,0,0,
0,0,0,0,0,0,0,0,0,0,0,0,0,0,0,0,19,1610612741,2,2,2,2,2,2,2684354565,16,9,14,0,0,0,0,0,0,0,0,0,0,0,0,0,0,0,0,0,0,27,9,29,5,2,2,2,2,2,2,3221225477,31,0,0,0,0,0,0,0,0,0,0,0,0,0,0,0,0,
0,0,0,0,0,0,0,0,0,0,0,0,0,0,0,0,0,20,22,1610612741,2,2,2,2,2,2,2,2684354565,16,9,9,14,0,0,0,0,0,0,0,0,0,0,27,9,9,29,5,2,2,2,2,2,2,2,3221225477,35,33,0,0,0,0,0,0,0,0,0,0,0,0,0,0,0,0,0,
0,0,0,0,0,0,0,0,0,0,0,0,0,0,0,0,0,0,0,20,22,1610612741,2,2,2,2,2,2,2,2,2,2684354565,16,9,9,9,9,9,9,9,9,29,5,2,2,2,2,2,2,2,2,2,3221225477,35,33,0,0,0,0,0,0,0,0,0,0,0,0,0,0,0,0,0,0,0,
0,0,0,0,0,0,0,0,0,0,0,0,0,0,0,0,0,0,0,0,0,20,22,1610612741,2,2,2,2,2,2,2,2,2,2,2,2,2,2,2,2,2,2,2,2,2,2,2,2,2,2,3221225477,35,33,0,0,0,0,0,0,0,0,0,0,0,0,0,0,0,0,0,0,0,0,0,
0,0,0,0,0,0,0,0,0,0,0,0,0,0,0,0,0,0,0,0,0,0,0,20,10,22,1610612741,2,2,2,2,2,2,2,2,2,2,2,2,2,2,2,2,2,2,2,2,3221225477,35,10,33,0,0,0,0,0,0,0,0,0,0,0,0,0,0,0,0,0,0,0,0,0,0,0,
0,0,0,0,0,0,0,0,0,0,0,0,0,0,0,0,0,0,0,0,0,0,0,0,0,0,20,10,10,10,22,1610612741,2,2,2,2,2,2,2,2,2,2,3221225477,35,10,10,10,33,0,0,0,0,0,0,0,0,0,0,0,0,0,0,0,0,0,0,0,0,0,0,0,0,0,0,
0,0,0,0,0,0,0,0,0,0,0,0,0,0,0,0,0,0,0,0,0,0,0,0,0,0,0,0,0,0,0,20,10,10,10,10,10,10,10,10,10,10,33,0,0,0,0,0,0,0,0,0,0,0,0,0,0,0,0,0,0,0,0,0,0,0,0,0,0,0,0,0,0,0
</data>
 </layer>
 <objectgroup id="3" name="Object Layer 1">
  <object id="1" x="1164" y="503">
   <properties>
    <property name="spawnpoint" type="class" propertytype="cargame::car::CarSpawnPoint"/>
   </properties>
   <point/>
  </object>
  <object id="2" x="1108" y="480" width="112" height="1">
   <properties>
    <property name="startingline" type="class" propertytype="cargame::tilemap::TriggerZone">
     <properties>
      <property name=":variant" propertytype="cargame::tilemap::TriggerZone:::Variant" value="Startingline"/>
     </properties>
    </property>
   </properties>
  </object>
  <object id="3" x="1660" y="481" width="112" height="1">
   <properties>
    <property name="checkpoint" type="class" propertytype="cargame::tilemap::TriggerZone">
     <properties>
      <property name=":variant" propertytype="cargame::tilemap::TriggerZone:::Variant" value="CheckPoint"/>
      <property name="CheckPoint" type="class" propertytype="cargame::tilemap::TriggerZone::CheckPoint">
       <properties>
        <property name="0" type="int" value="1"/>
       </properties>
      </property>
     </properties>
    </property>
   </properties>
  </object>
  <object id="4" x="4" y="473" width="112" height="2">
   <properties>
    <property name="checkpoint" type="class" propertytype="cargame::tilemap::TriggerZone">
     <properties>
      <property name=":variant" propertytype="cargame::tilemap::TriggerZone:::Variant" value="CheckPoint"/>
      <property name="CheckPoint" type="class" propertytype="cargame::tilemap::TriggerZone::CheckPoint">
       <properties>
        <property name="0" type="int" value="2"/>
       </properties>
      </property>
     </properties>
    </property>
   </properties>
  </object>
  <object id="5" x="1008" y="741" width="225" height="1">
   <properties>
    <property name="checkpoint" type="class" propertytype="cargame::tilemap::TriggerZone">
     <properties>
      <property name=":variant" propertytype="cargame::tilemap::TriggerZone:::Variant" value="CheckPoint"/>
      <property name="CheckPoint" type="class" propertytype="cargame::tilemap::TriggerZone::CheckPoint">
       <properties>
        <property name="0" type="int" value="3"/>
       </properties>
      </property>
     </properties>
    </property>
   </properties>
  </object>
 </objectgroup>
</map>
